icons/apple.svg

<svg width="24" height="24" viewBox="0 0 24 24" fill="none" xmlns="http://www.w3.org/2000/svg">
<path d="M12.3007 7.77916C12.237 5.17203 13.2339 2.64889 16.0725 2M13.091 7.57747C15.1485 6.11661 18.0595 6.81613 19.3282 8.90738C19.3928 9.01372 19.336 9.14983 19.2201 9.19571C15.9407 10.4943 16.1879 15.84 19.8278 16.5594C19.9446 16.5825 20.0243 16.6969 19.9932 16.8115C19.4257 18.9019 17.9768 21.9424 15.5024 21.9994C14.2364 22.0286 13.4948 20.9018 12.3007 20.9018C11.0961 20.9018 10.3348 22.0172 9.0433 21.9439C8.29858 21.9016 7.59267 21.5913 7.0511 21.068C4.30605 18.1058 2.96449 13.1491 4.94279 9.43612C6.153 7.0064 9.31607 6.1097 11.5844 7.57747C12.0426 7.84699 12.6328 7.84699 13.091 7.57747Z" stroke="black" stroke-width="2" stroke-linecap="round" stroke-linejoin="round"/>
</svg>

<svg xmlns="http://www.w3.org/2000/svg" width="24" height="24" viewBox="0 0 24 24" fill="none" stroke="currentColor" stroke-width="2" stroke-linecap="round" stroke-linejoin="round">
<path d="M12.3 7.78c-.063-2.608.934-5.131 3.773-5.78M13.09 7.577c2.058-1.46 4.969-.76 6.237 1.33.065.107.008.243-.108.289-3.28 1.298-3.032 6.644.608 7.363.117.023.196.138.165.252-.567 2.09-2.016 5.131-4.49 5.188-1.267.03-2.008-1.097-3.202-1.097-1.205 0-1.966 1.115-3.258 1.042a3.12 3.12 0 0 1-1.992-.876c-2.745-2.962-4.087-7.919-2.108-11.632 1.21-2.43 4.373-3.326 6.641-1.859.459.27 1.049.27 1.507 0"/>
</svg>
